src/assets/icons/lawyer.svg

<svg width="11" height="11" viewBox="0 0 11 11" fill="none" xmlns="http://www.w3.org/2000/svg">
<path d="M8.5625 2.53809H7.0625V2.03809C7.0625 1.64026 6.90446 1.25873 6.62316 0.977426C6.34186 0.696121 5.96032 0.538086 5.5625 0.538086H4.5625C4.16468 0.538086 3.78314 0.696121 3.50184 0.977426C3.22054 1.25873 3.0625 1.64026 3.0625 2.03809V2.53809H1.5625C1.16468 2.53809 0.783144 2.69612 0.50184 2.97743C0.220535 3.25873 0.0625 3.64026 0.0625 4.03809V8.53809C0.0625 8.93591 0.220535 9.31744 0.50184 9.59875C0.783144 9.88005 1.16468 10.0381 1.5625 10.0381H8.5625C8.96032 10.0381 9.34186 9.88005 9.62316 9.59875C9.90446 9.31744 10.0625 8.93591 10.0625 8.53809V4.03809C10.0625 3.64026 9.90446 3.25873 9.62316 2.97743C9.34186 2.69612 8.96032 2.53809 8.5625 2.53809ZM4.0625 2.03809C4.0625 1.90548 4.11518 1.7783 4.20895 1.68453C4.30271 1.59076 4.42989 1.53809 4.5625 1.53809H5.5625C5.69511 1.53809 5.82229 1.59076 5.91605 1.68453C6.00982 1.7783 6.0625 1.90548 6.0625 2.03809V2.53809H4.0625V2.03809ZM9.0625 8.53809C9.0625 8.67069 9.00982 8.79787 8.91605 8.89164C8.82229 8.98541 8.69511 9.03809 8.5625 9.03809H1.5625C1.42989 9.03809 1.30271 8.98541 1.20895 8.89164C1.11518 8.79787 1.0625 8.67069 1.0625 8.53809V5.78809C2.33563 6.29316 3.69284 6.55272 5.0625 6.55309C6.43211 6.55224 7.78924 6.29269 9.0625 5.78809V8.53809ZM9.0625 4.69309C7.8017 5.24697 6.4396 5.53298 5.0625 5.53298C3.6854 5.53298 2.3233 5.24697 1.0625 4.69309V4.03809C1.0625 3.90548 1.11518 3.7783 1.20895 3.68453C1.30271 3.59076 1.42989 3.53809 1.5625 3.53809H8.5625C8.69511 3.53809 8.82229 3.59076 8.91605 3.68453C9.00982 3.7783 9.0625 3.90548 9.0625 4.03809V4.69309Z" fill="black"/>
</svg>

<svg xmlns="http://www.w3.org/2000/svg" width="11" height="11" fill="none"><path fill="#000" d="M8.563 2.538h-1.5v-.5a1.5 1.5 0 0 0-1.5-1.5h-1a1.5 1.5 0 0 0-1.5 1.5v.5h-1.5a1.5 1.5 0 0 0-1.5 1.5v4.5a1.5 1.5 0 0 0 1.5 1.5h7a1.5 1.5 0 0 0 1.5-1.5v-4.5a1.5 1.5 0 0 0-1.5-1.5m-4.5-.5a.5.5 0 0 1 .5-.5h1a.5.5 0 0 1 .5.5v.5h-2zm5 6.5a.5.5 0 0 1-.5.5h-7a.5.5 0 0 1-.5-.5v-2.75a10.86 10.86 0 0 0 8 0zm0-3.845a9.95 9.95 0 0 1-8 0v-.655a.5.5 0 0 1 .5-.5h7a.5.5 0 0 1 .5.5z"/></svg>
